client/src/shared/assets/icons/add-folder.svg

<svg width="24" height="20" viewBox="0 0 24 20" fill="none" xmlns="http://www.w3.org/2000/svg">
<path fill-rule="evenodd" clip-rule="evenodd" d="M24 17.2004C24 18.5258 22.9254 19.6004 21.6 19.6004H2.39999C1.07453 19.6004 0 18.5258 0 17.2004V2.80038C0 1.4749 1.07451 0.400391 2.39999 0.400391H8.60588C9.24239 0.400391 9.85288 0.653242 10.3029 1.10334L12 2.80038H21.6C22.9254 2.80038 24 3.8749 24 5.20038V17.2004ZM10.8 14.2004C10.8 14.8632 11.3373 15.4004 12 15.4004C12.6627 15.4004 13.2 14.8632 13.2 14.2004V12.4004H15C15.6627 12.4004 16.2 11.8632 16.2 11.2004C16.2 10.5376 15.6627 10.0004 15 10.0004H13.2V8.20041C13.2 7.53763 12.6627 7.00038 12 7.00038C11.3373 7.00038 10.8 7.53763 10.8 8.20041V10.0004H8.99999C8.33724 10.0004 7.79999 10.5376 7.79999 11.2004C7.79999 11.8632 8.33724 12.4004 8.99999 12.4004H10.8V14.2004Z" fill="#777777"/>
</svg>

<svg xmlns="http://www.w3.org/2000/svg" width="24" height="20" fill="currentColor" viewBox="0 0 24 20"><path fill="currentColor" fill-rule="evenodd" d="M24 17.2a2.4 2.4 0 0 1-2.4 2.4H2.4A2.4 2.4 0 0 1 0 17.2V2.8A2.4 2.4 0 0 1 2.4.4h6.206a2.4 2.4 0 0 1 1.697.703L12 2.8h9.6A2.4 2.4 0 0 1 24 5.2zm-13.2-3a1.2 1.2 0 1 0 2.4 0v-1.8H15a1.2 1.2 0 1 0 0-2.4h-1.8V8.2a1.2 1.2 0 1 0-2.4 0V10H9a1.2 1.2 0 1 0 0 2.4h1.8z" clip-rule="evenodd"/></svg>
